dist/flags/s/478.svg

<svg width="16" height="12" viewBox="0 0 16 12" fill="none" xmlns="http://www.w3.org/2000/svg">
<mask id="mask0" mask-type="alpha" maskUnits="userSpaceOnUse" x="0" y="0" width="16" height="12">
<rect width="16" height="12" fill="white"/>
</mask>
<g mask="url(#mask0)">
<path fill-rule="evenodd" clip-rule="evenodd" d="M0 0V12H16V0H0Z" fill="#1C7B4D"/>
<mask id="mask1" mask-type="alpha" maskUnits="userSpaceOnUse" x="0" y="0" width="16" height="12">
<path fill-rule="evenodd" clip-rule="evenodd" d="M0 0V12H16V0H0Z" fill="white"/>
</mask>
<g mask="url(#mask1)">
<path fill-rule="evenodd" clip-rule="evenodd" d="M0 0V3H16V0H0Z" fill="#E31D1C"/>
<path fill-rule="evenodd" clip-rule="evenodd" d="M0 9V12H16V9H0Z" fill="#E31D1C"/>
<path fill-rule="evenodd" clip-rule="evenodd" d="M8.12098 7.18925C10.7136 7.20362 11.4438 5.03253 11.4438 5.03253C11.2969 6.88994 10.2696 8.14954 8.12098 8.14954C5.97233 8.14954 5.18335 6.51795 4.79816 4.89036C4.79816 4.89036 5.52834 7.17488 8.12098 7.18925Z" fill="#FECA00"/>
<path fill-rule="evenodd" clip-rule="evenodd" d="M8.81856 4.90677L8.98695 5.88853L8.10527 5.425L7.22359 5.88853L7.39198 4.90677L6.67868 4.13986L7.66443 4.13986L8.10527 3.175L8.54611 4.13986L9.53185 4.13986L8.81856 4.90677Z" fill="#FECA00"/>
</g>
</g>
</svg>

<svg width="16" height="12" fill="none" xmlns="http://www.w3.org/2000/svg">
  <mask id="a" maskUnits="userSpaceOnUse" x="0" y="0" width="16" height="12">
    <path fill="#fff" d="M0 0h16v12H0z"/>
  </mask>
  <g mask="url(#a)">
    <path fill-rule="evenodd" clip-rule="evenodd" d="M0 0v12h16V0H0z" fill="#1C7B4D"/>
    <mask id="b" maskUnits="userSpaceOnUse" x="0" y="0" width="16" height="12">
      <path fill-rule="evenodd" clip-rule="evenodd" d="M0 0v12h16V0H0z" fill="#fff"/>
    </mask>
    <g mask="url(#b)" fill-rule="evenodd" clip-rule="evenodd">
      <path d="M0 0v3h16V0H0zm0 9v3h16V9H0z" fill="#E31D1C"/>
      <path d="M8.121 7.19c2.593.014 3.323-2.157 3.323-2.157C11.297 6.89 10.27 8.15 8.12 8.15S5.183 6.518 4.798 4.89c0 0 .73 2.285 3.323 2.3z" fill="#FECA00"/>
      <path d="M8.819 4.907l.168.982-.882-.464-.881.464.168-.982-.713-.767h.985l.441-.965.441.965h.986l-.713.767z" fill="#FECA00"/>
    </g>
  </g>
</svg>
